icons/engine-yard.svg

<?xml version="1.0" encoding="UTF-8"?>
<svg width="256px" height="254px" viewBox="0 0 256 254" version="1.1" xmlns="http://www.w3.org/2000/svg" xmlns:xlink="http://www.w3.org/1999/xlink" preserveAspectRatio="xMidYMid">
    <defs>
        <linearGradient x1="61.0500426%" y1="82.514%" x2="38.4498197%" y2="28.19%" id="linearGradient-1">
            <stop stop-color="#477CD8" offset="0%"></stop>
            <stop stop-color="#4573D2" offset="16%"></stop>
            <stop stop-color="#3F5BC2" offset="43%"></stop>
            <stop stop-color="#3633A7" offset="76%"></stop>
            <stop stop-color="#2F1391" offset="100%"></stop>
        </linearGradient>
        <linearGradient x1="62.8566029%" y1="19.708%" x2="52.4304188%" y2="78.902%" id="linearGradient-2">
            <stop stop-color="#2055DA" offset="0%"></stop>
            <stop stop-color="#2055DA" offset="11%"></stop>
            <stop stop-color="#00BFF6" offset="100%"></stop>
        </linearGradient>
    </defs>
    <g>
        <path d="M72.7150149,126.611074 C72.7150149,96.8615479 96.8317711,72.7447918 126.581297,72.7447918 C156.330824,72.7447918 180.44758,96.8615479 180.44758,126.611074 C180.44758,156.360601 156.330824,180.477357 126.581297,180.477357 L126.581297,180.477357 C96.8317711,180.477357 72.7150149,156.360601 72.7150149,126.611074 L72.7150149,126.611074 M0,126.611074 C0,196.503549 56.6590457,253.162595 126.551521,253.162595 C196.443996,253.162595 253.103041,196.503549 253.103041,126.611074 C253.103041,56.7185994 196.443996,0.0595536568 126.551521,0.0595536568 L126.551521,0.0595536568 C56.6998474,0.157959542 0.0984058848,56.759401 0,126.611074" fill="url(#linearGradient-1)"></path>
        <path d="M152.457361,38.9183147 L126.491967,72.7745686 C155.723692,73.4621836 179.062432,97.3563743 179.062432,126.596186 C179.062432,155.835997 155.723692,179.730188 126.491967,180.417803 L93.9756704,217.370847 L126.491967,253.103041 C171.746201,254.147449 214.1137,230.946873 237.608402,192.255331 C261.103105,153.563788 262.148498,105.271151 240.350136,65.5991464 C218.551774,25.927142 177.227941,0.914894993 131.970903,0 C130.154517,0 128.308354,0 126.491967,0 L152.457361,38.9183147 Z" fill="url(#linearGradient-2)"></path>
    </g>
</svg>

<svg xmlns="http://www.w3.org/2000/svg" viewBox="0 0 255.994 253.163">
  <defs>
    <linearGradient id="a" x1="154.519" x2="97.318" y1="208.905" y2="71.409" gradientUnits="userSpaceOnUse">
      <stop offset="0%" stop-color="#477CD8"/>
      <stop offset="16%" stop-color="#4573D2"/>
      <stop offset="43%" stop-color="#3F5BC2"/>
      <stop offset="76%" stop-color="#3633A7"/>
      <stop offset="100%" stop-color="#2F1391"/>
    </linearGradient>
    <linearGradient id="b" x1="244.761" x2="223.646" y1="39.912" y2="159.789" gradientTransform="scale(.80003 1.24996)" gradientUnits="userSpaceOnUse">
      <stop offset="0%" stop-color="#2055DA"/>
      <stop offset="11%" stop-color="#2055DA"/>
      <stop offset="100%" stop-color="#00BFF6"/>
    </linearGradient>
  </defs>
  <path fill="url(#a)" d="M72.715 126.611c0-29.75 24.117-53.866 53.866-53.866 29.75 0 53.867 24.117 53.867 53.866 0 29.75-24.117 53.866-53.867 53.866-29.75 0-53.866-24.116-53.866-53.866m-72.715 0c0 69.893 56.659 126.552 126.552 126.552 69.892 0 126.551-56.66 126.551-126.552C253.103 56.72 196.444.06 126.552.06 56.7.158.098 56.76 0 126.61" style="fill:url(#a)"/>
  <path fill="url(#b)" d="m152.457 38.918-25.965 33.857c29.232.687 52.57 24.581 52.57 53.821s-23.338 53.134-52.57 53.822L93.976 217.37l32.516 35.732c45.254 1.044 87.622-22.156 111.116-60.848 23.495-38.691 24.54-86.984 2.742-126.656C218.552 25.927 177.228.915 131.97 0h-5.478z" style="fill:url(#b)"/>
</svg>
